X: 35853
T: Samhain Dubh
R: reel
M: 4/4
K: Ddorian
|:Ddef edcA|DAcA GFEF|Ddef edgf|afge c/d/e e2|
Ddef edcA|DAcA GFEF|Ddef a/g/fge|1 Ac d2 e d3:|2 Ac d2 e d2 f/g/||
|:aagf ge(A/c/)e|ffed e2 g2|aagf g^a=ag|fe(A/c/)e d4|
aagf geA/c/e|ffed cAGE|D>EFG AcAG|1 FDEC D3 f/g/:|2 FDEC D4||

